X: 36937
T: Short Is The Night, Long Is The Road
R: jig
M: 6/8
K: Eminor
|:e2B gfd|edB AB/c/d|edB c2d|efa gfd|
~e3 gfd|edB AB/c/d|edB AGF|1 GFE EGB:|2 GFE E2F||
GEE ~B3|EGB e2g|fdd adb|afd AGF|
GEE ~B3|EGB e2e|~f3 agf|~g3 e3|
EGB A^ce|~g3 gfe|fda dbd|afd AGF|
~G3 ~A3|~B3 def|edB AGF|GFE EGB||

